X:91
T:Scotch Reel
O:No 91 Wm Clarke MS  Feltwell, Norfolk
N:Bar 1 repeat sign added
I:abc2nwc
M:2/2
L:1/8
K:G
D|:DGGB AG g2|dB(c/2B/2A/2)G/2 AFFD|
DGGB AG g2|dB(d/2c/2B/2A/2) G2G2:|
|:g3/2a/2g3/2e/2 dBBg|dBBG AE E2|g3/2a/2g3/2e/2 dBBg|
abab g2ga|bgBb afAa|gdBG AE E2|
DGGB AG g2|dBd/2c/2B/2A/2 G2G2:|

